public/library/pendle-text-light.svg

<svg width="222" height="68" viewBox="0 0 222 68" fill="none" xmlns="http://www.w3.org/2000/svg">
<circle cx="30.0002" cy="33.2983" r="16.8095" fill="#DEDEDE"/>
<circle cx="22.4379" cy="49.2637" r="9.24751" fill="#1E4480"/>
<path d="M23.4827 40.0757C28.0978 40.5948 31.6856 44.5095 31.6858 49.2632C31.6858 49.5205 31.6712 49.775 31.6506 50.0269C31.1076 50.0798 30.5571 50.108 30.0002 50.108C24.1645 50.108 19.0239 47.1336 16.01 42.6187C17.4451 41.2306 19.3277 40.3019 21.4211 40.0728V18.8404C22.0806 18.4483 22.769 18.0998 23.4827 17.7994V40.0757Z" fill="#152E51"/>
<path d="M69.5011 35.3091H65.3261V42.0591H62.3011V24.8341H69.6011C71.6511 24.8341 74.5511 26.5341 74.5511 29.9341C74.5511 34.4841 71.2511 35.3091 69.5011 35.3091ZM65.3261 32.7591H69.5261C70.2011 32.7591 71.5761 32.1841 71.5761 29.9341C71.5761 28.3591 70.4511 27.4091 69.6011 27.4091H65.3261V32.7591ZM91.4337 34.4591V38.4341C91.4337 39.0091 91.6337 39.5091 92.6087 39.5091H99.3837V42.0591H92.4587C89.6837 41.9841 88.4587 41.1341 88.4087 38.5591V24.8341H99.3837V27.3841H91.4337V31.9091H98.8337V34.4591H91.4337ZM116.886 29.5341V42.0591H113.861V24.8341H116.861C119.161 27.7341 122.236 32.3341 124.236 36.5841V24.8341H127.261V42.0591H124.236C122.236 38.0591 120.011 34.0091 116.886 29.5341ZM148.483 42.0591H142.533V24.8341H148.483C152.658 24.8341 156.533 27.7591 156.533 33.4841C156.533 39.2841 152.658 42.0591 148.483 42.0591ZM145.558 39.5091H147.433C151.333 39.5091 153.383 37.4591 153.383 33.4841C153.383 29.5591 151.508 27.3841 147.433 27.3841H145.558V39.5091ZM173.839 24.8341V38.2091C173.839 38.9091 174.089 39.5091 175.264 39.5091H181.989V42.0591H174.864C172.089 41.9841 170.864 41.1341 170.814 38.5591V24.8341H173.839ZM198.483 34.4591V38.4341C198.483 39.0091 198.683 39.5091 199.658 39.5091H206.433V42.0591H199.508C196.733 41.9841 195.508 41.1341 195.458 38.5591V24.8341H206.433V27.3841H198.483V31.9091H205.883V34.4591H198.483Z" fill="#1E4480"/>
</svg>

<svg xmlns="http://www.w3.org/2000/svg" width="222" height="68" fill="none" viewBox="0 0 222 68"><circle cx="30" cy="33.298" r="16.809" fill="#dedede"/><circle cx="22.438" cy="49.264" r="9.248" fill="#1e4480"/><path fill="#152e51" d="M23.483 40.076c4.615.519 8.203 4.434 8.203 9.187 0 .258-.015.512-.035.764q-.815.08-1.65.081c-5.837 0-10.977-2.974-13.991-7.49a9.2 9.2 0 0 1 5.411-2.545V18.84q.99-.589 2.062-1.04z"/><path fill="#1e4480" d="M69.501 35.31h-4.175v6.75h-3.025V24.833h7.3c2.05 0 4.95 1.7 4.95 5.1 0 4.55-3.3 5.375-5.05 5.375m-4.175-2.55h4.2c.675 0 2.05-.576 2.05-2.826 0-1.575-1.125-2.525-1.975-2.525h-4.275zm26.108 1.7v3.974c0 .575.2 1.075 1.175 1.075h6.775v2.55h-6.925c-2.775-.075-4-.925-4.05-3.5V24.834h10.975v2.55h-7.95v4.525h7.4v2.55zm25.452-4.926V42.06h-3.025V24.834h3c2.3 2.9 5.375 7.5 7.375 11.75v-11.75h3.025V42.06h-3.025c-2-4-4.225-8.05-7.35-12.525m31.597 12.525h-5.95V24.834h5.95c4.175 0 8.05 2.925 8.05 8.65 0 5.8-3.875 8.575-8.05 8.575m-2.925-2.55h1.875c3.9 0 5.95-2.05 5.95-6.025 0-3.925-1.875-6.1-5.95-6.1h-1.875zm28.281-14.675V38.21c0 .7.25 1.3 1.425 1.3h6.725v2.55h-7.125c-2.775-.075-4-.925-4.05-3.5V24.834zm24.644 9.625v3.975c0 .575.2 1.075 1.175 1.075h6.775v2.55h-6.925c-2.775-.075-4-.925-4.05-3.5V24.834h10.975v2.55h-7.95v4.525h7.4v2.55z"/></svg>
